icons/measure-building-height-shadow-24-f.svg

<svg xmlns="http://www.w3.org/2000/svg" viewBox="0 0 24 24"><path d="M11 2.242L20.17 19H21a.987.987 0 0 1 .093-.398L11 .159V0H1v23H0v1h24v-1H11zM5 5H3V3h2zm4 0H7V3h2zm-4 5H3V8h2zm4 0H7V8h2zm-4 5H3v-2h2zm4 0H7v-2h2zm-4 5H3v-2h2zm4 0H7v-2h2zm6 0h7v-1l2 1.5-2 1.5v-1h-7v1l-2-1.5 2-1.5z"/></svg>

<svg id="icons" xmlns="http://www.w3.org/2000/svg" viewBox="0 0 24 24"><title>measure-building-height-shadow-24-f</title><path d="M11,2.24188,20.17084,19H21a.98715.98715,0,0,1,.09283-.39819L11,.15894V0H1V23H0v1H24V23H11ZM5,5H3V3H5ZM9,5H7V3H9ZM5,10H3V8H5Zm4,0H7V8H9ZM5,15H3V13H5Zm4,0H7V13H9ZM5,20H3V18H5Zm4,0H7V18H9Zm6,0h7V19l2,1.5L22,22V21H15v1l-2-1.5L15,19Z"/></svg>
